trafik_levhalari/bilgi/57.svg

<svg viewBox="0 0 345.94 350.97" xmlns="http://www.w3.org/2000/svg"><defs><style>.cls-1 {        fill: #00408c;        fill-rule: evenodd;      }      .cls-2 {        fill: #fff;      }</style></defs><g data-name="Layer 2"><g data-name="Layer 1"><g data-name="Layer 2"><g data-name="Layer 1-2"><g data-name="Layer 1-2-2"><path class="cls-1" d="M22.573,0H323.367A22.519,22.519,0,0,1,345.94,22.466V328.4a22.526,22.526,0,0,1-22.479,22.573H22.573A22.532,22.532,0,0,1,0,328.491V22.573A22.533,22.533,0,0,1,22.479,0Z"/><path class="cls-2" d="M20.472,344.324A15.76,15.76,0,0,1,6.936,330.653c-.2-1.5-.2-308.376,0-309.857a15.612,15.612,0,0,1,3.57-8.216A16.035,16.035,0,0,1,19.4,7.246c.9-.215,6.822-.222,153.225-.262,108.307,0,151.979,0,152.821.094A15.684,15.684,0,0,1,339.273,20.8c.182,1.481.182,308.362,0,309.85a15.718,15.718,0,0,1-13.7,13.7c-1.347.168-303.824.155-305.11,0ZM326.208,339a10.848,10.848,0,0,0,7.758-7.819l.283-1.124V21.334L333.96,20.2a10.649,10.649,0,0,0-7.778-7.812l-1.165-.269H173.5c-143.938,0-152.194,0-153.151.229a10.535,10.535,0,0,0-5.279,2.889,10.774,10.774,0,0,0-2.883,5.151c-.2.8-.215,9.839-.249,154.4,0,101.688,0,153.973.081,154.794a9.925,9.925,0,0,0,1.064,3.866,10.6,10.6,0,0,0,8.3,5.791c.444.054,69.12.088,152.619.081h151.15Z"/></g><rect class="cls-2" x="56.494" y="59.006" width="232.96" height="232.96"/></g></g><path class="cls-2" d="M112.419,172.565V152.472H86.577v8.109h17.806v20.2h25.941v20.136h25.93v20.2h25.908v20.138h26.05V261.43h25.929v6.293h7.935v-14.41H216.232V233.061H190.288V213.018H164.305V192.751H138.33V172.565ZM215.93,162.309a11.6,11.6,0,0,0,9.463-3.591,2.8,2.8,0,0,0,.726-1.761c.055-5.357.015-10.715.04-16.072a6.421,6.421,0,0,0-2.584-5.392c-6.75-5.319-13.467-10.679-20.207-16.01a8.067,8.067,0,0,0-1.531-.92,15.14,15.14,0,0,0-9.94-1.148,13.545,13.545,0,0,0-9.224,6.245c-7.344,12.037-14.81,24-22.227,35.994-.183.3-.34.609-.5.9,3.733,3.521,10.534,2.395,12.82-1.379,3.415-5.636,7.046-11.141,10.586-16.7.422-.662.854-1.317,1.282-1.975l.255.06v23.334h23.032V136.721c.257.085.389.092.466.16,2.364,2.092,4.742,4.17,7.062,6.31a2.051,2.051,0,0,1,.46,1.366c.034,4.2.02,8.4.02,12.594Zm-8.02,4.6a4.608,4.608,0,0,0-.541-.09c-7.279,0-14.557-.017-21.836.026a2.417,2.417,0,0,0-1.416.685c-3.662,3.338-7.254,6.754-10.948,10.056a8.559,8.559,0,0,0-3.01,6.759c.02,8.517.008,17.035.008,25.552v1.37c4.413.632,9.48-2.208,11.652-6.486a5.022,5.022,0,0,0,.516-2.162c.042-5.358,0-10.717.051-16.075a2.379,2.379,0,0,1,.652-1.52c2.254-2.21,4.567-4.359,6.867-6.522,1.82-1.711,3.648-3.414,5.72-5.351v57.965a11.692,11.692,0,0,0,8.58-2.8,9.7,9.7,0,0,0,3.77-7.865c-.142-17.314-.065-34.63-.065-51.945ZM206.454,102.6A11.345,11.345,0,1,0,195,113.856,11.34,11.34,0,0,0,206.454,102.6Z"/><path d="m112.42 172.56h25.911v20.186h25.975v20.267h25.983v20.043h25.944v20.252h25.844v14.41h-7.935v-6.293h-25.929v-20.176h-26.05v-20.138h-25.908v-20.2h-25.93v-20.138h-25.941v-20.2h-17.806v-8.109h25.842z"/><path d="M215.93,162.309v-5.158c0-4.2.014-8.4-.02-12.594a2.051,2.051,0,0,0-.46-1.366c-2.32-2.14-4.7-4.218-7.062-6.31-.077-.068-.209-.075-.466-.16v27.168H184.89V140.555l-.255-.06c-.428.658-.86,1.313-1.282,1.975-3.54,5.56-7.171,11.065-10.586,16.7-2.286,3.774-9.087,4.9-12.82,1.379.159-.287.316-.6.5-.9,7.417-11.993,14.883-23.957,22.227-35.994a13.545,13.545,0,0,1,9.224-6.245,15.14,15.14,0,0,1,9.94,1.148,8.067,8.067,0,0,1,1.531.92c6.74,5.331,13.457,10.691,20.207,16.01a6.421,6.421,0,0,1,2.584,5.392c-.025,5.357.015,10.715-.04,16.072a2.8,2.8,0,0,1-.726,1.761A11.6,11.6,0,0,1,215.93,162.309Z"/><path d="M207.91,166.907V168.5c0,17.315-.077,34.631.065,51.945a9.7,9.7,0,0,1-3.77,7.865,11.692,11.692,0,0,1-8.58,2.8V173.149c-2.072,1.937-3.9,3.64-5.72,5.351-2.3,2.163-4.613,4.312-6.867,6.522a2.379,2.379,0,0,0-.652,1.52c-.046,5.358-.009,10.717-.051,16.075a5.022,5.022,0,0,1-.516,2.162c-2.172,4.278-7.239,7.118-11.652,6.486V209.9c0-8.517.012-17.035-.008-25.552a8.559,8.559,0,0,1,3.01-6.759c3.694-3.3,7.286-6.718,10.948-10.056a2.417,2.417,0,0,1,1.416-.685c7.279-.043,14.557-.029,21.836-.026A4.608,4.608,0,0,1,207.91,166.907Z"/><path d="m206.45 102.6a11.344 11.344 0 1 1-10.628-11.452 11.488 11.488 0 0 1 10.628 11.452z"/></g></g></svg>

<svg xmlns="http://www.w3.org/2000/svg" viewBox="0 0 345.94 350.97">
  <defs>
    <style>
      .cls-1 {
        fill: #00408c;
        fill-rule: evenodd;
      }

      .cls-2 {
        fill: #fff;
      }
    </style>
  </defs>
  <g id="Layer_2" data-name="Layer 2">
    <g id="Layer_1-2" data-name="Layer 1">
      <g>
        <g id="Layer_2-2" data-name="Layer 2">
          <g id="Layer_1-2-2" data-name="Layer 1-2">
            <g id="Layer_1-2-2-2" data-name="Layer 1-2-2">
              <g id="g8435">
                <path id="rect9000" class="cls-1" d="M22.573,0H323.367A22.519,22.519,0,0,1,345.94,22.466V328.4a22.526,22.526,0,0,1-22.479,22.573H22.573A22.532,22.532,0,0,1,0,328.491V22.573A22.533,22.533,0,0,1,22.479,0Z"/>
                <path id="path9038" class="cls-2" d="M20.472,344.324A15.76,15.76,0,0,1,6.936,330.653c-.2-1.5-.2-308.376,0-309.857a15.612,15.612,0,0,1,3.57-8.216A16.035,16.035,0,0,1,19.4,7.246c.9-.215,6.822-.222,153.225-.262,108.307,0,151.979,0,152.821.094A15.684,15.684,0,0,1,339.273,20.8c.182,1.481.182,308.362,0,309.85a15.718,15.718,0,0,1-13.7,13.7c-1.347.168-303.824.155-305.11,0ZM326.208,339a10.848,10.848,0,0,0,7.758-7.819l.283-1.124V21.334L333.96,20.2a10.649,10.649,0,0,0-7.778-7.812l-1.165-.269H173.5c-143.938,0-152.194,0-153.151.229a10.535,10.535,0,0,0-5.279,2.889,10.774,10.774,0,0,0-2.883,5.151c-.2.8-.215,9.839-.249,154.4,0,101.688,0,153.973.081,154.794a9.925,9.925,0,0,0,1.064,3.866,10.6,10.6,0,0,0,8.3,5.791c.444.054,69.12.088,152.619.081h151.15Z"/>
              </g>
            </g>
            <rect class="cls-2" x="56.494" y="59.006" width="232.959" height="232.959"/>
          </g>
        </g>
        <g>
          <path class="cls-2" d="M112.419,172.565V152.472H86.577v8.109h17.806v20.2h25.941v20.136h25.93v20.2h25.908v20.138h26.05V261.43h25.929v6.293h7.935v-14.41H216.232V233.061H190.288V213.018H164.305V192.751H138.33V172.565ZM215.93,162.309a11.6,11.6,0,0,0,9.463-3.591,2.8,2.8,0,0,0,.726-1.761c.055-5.357.015-10.715.04-16.072a6.421,6.421,0,0,0-2.584-5.392c-6.75-5.319-13.467-10.679-20.207-16.01a8.067,8.067,0,0,0-1.531-.92,15.14,15.14,0,0,0-9.94-1.148,13.545,13.545,0,0,0-9.224,6.245c-7.344,12.037-14.81,24-22.227,35.994-.183.3-.34.609-.5.9,3.733,3.521,10.534,2.395,12.82-1.379,3.415-5.636,7.046-11.141,10.586-16.7.422-.662.854-1.317,1.282-1.975l.255.06v23.334h23.032V136.721c.257.085.389.092.466.16,2.364,2.092,4.742,4.17,7.062,6.31a2.051,2.051,0,0,1,.46,1.366c.034,4.2.02,8.4.02,12.594Zm-8.02,4.6a4.608,4.608,0,0,0-.541-.09c-7.279,0-14.557-.017-21.836.026a2.417,2.417,0,0,0-1.416.685c-3.662,3.338-7.254,6.754-10.948,10.056a8.559,8.559,0,0,0-3.01,6.759c.02,8.517.008,17.035.008,25.552v1.37c4.413.632,9.48-2.208,11.652-6.486a5.022,5.022,0,0,0,.516-2.162c.042-5.358,0-10.717.051-16.075a2.379,2.379,0,0,1,.652-1.52c2.254-2.21,4.567-4.359,6.867-6.522,1.82-1.711,3.648-3.414,5.72-5.351v57.965a11.692,11.692,0,0,0,8.58-2.8,9.7,9.7,0,0,0,3.77-7.865c-.142-17.314-.065-34.63-.065-51.945ZM206.454,102.6A11.345,11.345,0,1,0,195,113.856,11.34,11.34,0,0,0,206.454,102.6Z"/>
          <path d="M112.419,172.565H138.33v20.186h25.975v20.267h25.983v20.043h25.944v20.252h25.844v14.41h-7.935V261.43H208.212V241.254h-26.05V221.116H156.254v-20.2h-25.93V180.778H104.383v-20.2H86.577v-8.109h25.842Z"/>
          <path d="M215.93,162.309v-5.158c0-4.2.014-8.4-.02-12.594a2.051,2.051,0,0,0-.46-1.366c-2.32-2.14-4.7-4.218-7.062-6.31-.077-.068-.209-.075-.466-.16v27.168H184.89V140.555l-.255-.06c-.428.658-.86,1.313-1.282,1.975-3.54,5.56-7.171,11.065-10.586,16.7-2.286,3.774-9.087,4.9-12.82,1.379.159-.287.316-.6.5-.9,7.417-11.993,14.883-23.957,22.227-35.994a13.545,13.545,0,0,1,9.224-6.245,15.14,15.14,0,0,1,9.94,1.148,8.067,8.067,0,0,1,1.531.92c6.74,5.331,13.457,10.691,20.207,16.01a6.421,6.421,0,0,1,2.584,5.392c-.025,5.357.015,10.715-.04,16.072a2.8,2.8,0,0,1-.726,1.761A11.6,11.6,0,0,1,215.93,162.309Z"/>
          <path d="M207.91,166.907V168.5c0,17.315-.077,34.631.065,51.945a9.7,9.7,0,0,1-3.77,7.865,11.692,11.692,0,0,1-8.58,2.8V173.149c-2.072,1.937-3.9,3.64-5.72,5.351-2.3,2.163-4.613,4.312-6.867,6.522a2.379,2.379,0,0,0-.652,1.52c-.046,5.358-.009,10.717-.051,16.075a5.022,5.022,0,0,1-.516,2.162c-2.172,4.278-7.239,7.118-11.652,6.486V209.9c0-8.517.012-17.035-.008-25.552a8.559,8.559,0,0,1,3.01-6.759c3.694-3.3,7.286-6.718,10.948-10.056a2.417,2.417,0,0,1,1.416-.685c7.279-.043,14.557-.029,21.836-.026A4.608,4.608,0,0,1,207.91,166.907Z"/>
          <path d="M206.454,102.6a11.344,11.344,0,1,1-10.628-11.452A11.488,11.488,0,0,1,206.454,102.6Z"/>
        </g>
      </g>
    </g>
  </g>
</svg>
